src/main/resources/icons/UIDesignerIcons/com/intellij/uiDesigner/icons/toolbar.svg

<svg xmlns="http://www.w3.org/2000/svg" width="16" height="16" viewBox="0 0 16 16"><rect id="frame" width="16" height="16" fill="none"/><path fill="#9AA7B0" fill-opacity=".6" fill-rule="evenodd" d="M1 5h14v6H1V5zm2 2v2h2V7H3zm4 0v2h2V7H7zm4 0v2h2V7h-2z"/></svg>

<svg xmlns="http://www.w3.org/2000/svg" width="16" height="16" viewBox="0 0 16 16">
  <path fill="#9AA7B0" fill-opacity=".6" fill-rule="evenodd" d="M1,5 L15,5 L15,11 L1,11 L1,5 Z M3,7 L3,9 L5,9 L5,7 L3,7 Z M7,7 L7,9 L9,9 L9,7 L7,7 Z M11,7 L11,9 L13,9 L13,7 L11,7 Z"/>
</svg>
